Printex-remake/img/icons/catalog_sliced/06.svg

<svg width="98" height="69" viewBox="0 0 98 69" fill="none" xmlns="http://www.w3.org/2000/svg">
<g clip-path="url(#clip0)">
<path d="M78.2415 45.4775L97.8645 41.7953L51.9791 68.2838L39.0361 68.1111L78.2415 45.4775Z" fill="#C4C4C4"/>
<path d="M63.416 21.6563L97.8644 41.7952L78.2551 46.565L77.7251 37.0255L62.8858 29.4733L63.416 21.6563Z" fill="#C4C4C4"/>
<path d="M65.5357 30.1357L77.9222 37.1584L39.1354 59.5503L0.348682 37.1584L2.99855 35.5019M2.20358 40.335L0.348633 41.5248L39.1354 63.9167L77.9221 41.5248L75.9687 40.3351M2.20358 44.5386L0.348633 45.7283L39.1354 68.1202L77.9221 45.7283L75.9687 44.5387" stroke="black" stroke-linejoin="bevel"/>
<path d="M31.6177 5.22679L62.8095 22.716C64.5475 32.512 59.1057 42.281 47.8027 49.656L39.1364 55.3106L3.46311 34.7161C19.7367 28.8467 30.1137 18.8097 31.3378 7.75462L31.6177 5.22679Z" fill="#F2F2F2"/>
<path d="M39.1327 54.7317L1.48347 32.9965C18.6443 25.8782 29.0359 14.3383 29.0359 1.86639L29.0359 0.752787L62.4717 18.23C66.2249 30.1872 59.7544 42.5716 44.7399 51.4252L39.1327 54.7317Z" stroke="black" stroke-linejoin="bevel"/>
<path d="M53.3466 20.5963L33.3765 9.4668C32.6692 13.0102 31.1777 16.4608 28.9678 19.7405" stroke="black" stroke-linejoin="bevel"/>
</g>
<defs>
<clipPath id="clip0">
<rect width="112" height="98" fill="white" transform="translate(-5 -12)"/>
</clipPath>
</defs>
</svg>

<svg width="98" height="69" fill="none" xmlns="http://www.w3.org/2000/svg"><g clip-path="url(#clip0)"><path d="M78.242 45.477l19.623-3.682-45.886 26.489-12.943-.173 39.206-22.634z" fill="#C4C4C4"/><path d="M63.416 21.656l34.448 20.14-19.609 4.769-.53-9.54-14.84-7.552.531-7.817z" fill="#C4C4C4"/><path d="M65.536 30.136l12.386 7.022L39.135 59.55.35 37.158 3 35.502m-.795 4.833L.35 41.525l38.786 22.392 38.787-22.392-1.953-1.19M2.204 44.54L.349 45.73l38.786 22.39 38.787-22.392-1.953-1.19" stroke="#000" stroke-linejoin="bevel"/><path d="M31.618 5.227L62.81 22.716c1.737 9.796-3.704 19.565-15.007 26.94l-8.667 5.655L3.463 34.716c16.274-5.87 26.65-15.906 27.875-26.961l.28-2.528z" fill="#F2F2F2"/><path d="M39.133 54.732L1.483 32.996c17.161-7.118 27.553-18.658 27.553-31.13V.753L62.472 18.23c3.753 11.957-2.718 24.342-17.732 33.195l-5.607 3.307z" stroke="#000" stroke-linejoin="bevel"/><path d="M53.347 20.596l-19.97-11.13c-.708 3.544-2.2 6.995-4.41 10.275" stroke="#000" stroke-linejoin="bevel"/></g><defs><clipPath id="clip0"><path fill="#fff" transform="translate(-5 -12)" d="M0 0h112v98H0z"/></clipPath></defs></svg>
